X:146
T:Morning Star, The
R:reel
D:Bothy Band: Out of the Wind, Into the Sun
Z:id:hn-reel-146
M:C|
K:G
~B3A BGEF | GABd efgd | ~B3A BGED | GBAF ~G3A |
(3BcB Ac BGEF | G2Bd edgd | (3BcB Ac BGEF | GBAF ~G3A ||
(3Bcd ef gfeg | fedf eBBA | (3Bcd ef g2eg | fedf ~e3d |
Bdef gbeg | fedf edBA | Bdd^c d2ef | g2af gfed ||
P:variations
~B3A BGEF | G2 (3Bcd gfed | ~B3A BGEF | GBAF ~G3A |
~B2Ac BGEF | GABd edgd | ~B3A BGEF | GBAF ~G3A ||
(3Bcd ef g2eg | f2df edBA | (3Bcd ef g2eg | fedf ~e3d |
Bdef ~g3e | ~f3d edBA | Bdd^c d2ef | geaf gfed ||

